X: 1
T:BWV 469
C:Johann Sebastian Bach?
O:Germany
Z:Transcribed by Frank Nordberg - http://www.musicaviva.com

V:1 Program 1 68 %Oboe
V:2 Program 1 70 bass %Bassoon
M:Cdor
L:1/8
Q:1/4=94

K:Gm
G2|c2d2 e2c2|B3_A G2B2|E3D E2F2|G4 G2:|

V:2
C,D,|E,D,C,=B,, C,D,E,C,|D,B,, C,D,E,2 E,D,|C,G,CB, _A,G,A,2|G,4 G,,2:|

V:1
B2|e2B2 c2B2|_A3B G2B2|e2B2 c2B2|

V:2
G,F,|E,F,G,E, _A,3G,|F,E,D,B,, E,2E,D,|C,D,E,D, E,F,G,E,|

V:1
_A3B G2G2|A2=B2 cedc|=B4 c2|]

V:2
F,2B,,2 E,2C,2|F,E,F,D, E,2F,2|G,2 G,,2 C,2|]

